X: 10691
Q: "Andantino"
M: 6/8
L: 1/8
K: G
d !segno!|\
^G2G e2d | c3 z2c | F2F d2c | B3 z2G |\
^c2c Hc2c | d2z z2d | =c2c B2B | A3- A2A |
d3 d2d | e2z z2c | A3 (d2c) | B2z z2z |
(Bcd de=f) | G3- G ec | B3 c3 | B2z z2z |\
(c3 cde) | ^F3 G2G | B3 A3 | G2z Hz2d !segno!|]


